svg/white/edoge.svg

<svg xmlns="http://www.w3.org/2000/svg" width="32" height="32" viewBox="0 0 32 32">
  <path fill="#FFF" d="M16,32 C7.163444,32 0,24.836556 0,16 C0,7.163444 7.163444,0 16,0 C24.836556,0 32,7.163444 32,16 C32,24.836556 24.836556,32 16,32 Z M9.47149597,9.01564778 C8.96299944,9.01564778 8.43138942,8.97037063 7.96911984,9.1967564 C7.72642831,9.57029293 7.66864462,10.1022995 7.9575631,10.475836 C8.23492485,10.7248604 8.63941073,10.7248604 8.99766965,10.7361797 C10.6040564,10.7361797 12.2104432,10.7248604 13.81683,10.7361797 C13.7706031,12.1284521 13.81683,13.5320439 13.7937165,14.9356357 C12.3606808,14.9356357 10.9160884,14.9243164 9.48305271,14.9356357 C9.11323705,14.9356357 8.67408095,15.0035515 8.5122866,15.377088 C8.38516246,15.7166666 8.38516246,16.1581189 8.67408095,16.4184625 C8.91677248,16.6222097 9.26347466,16.6222097 9.57550663,16.633529 C10.9854288,16.633529 12.3837943,16.6222097 13.7937165,16.633529 C13.7937165,18.161633 13.7706031,19.7010562 13.8052733,21.2404795 C11.9793084,21.2744373 10.1417869,21.2178409 8.31582203,21.2744373 C7.54152048,21.2291602 7.25260199,22.2705347 7.73798505,22.7572641 C8.0153468,23.0062885 8.41983268,22.9723306 8.7780916,22.9949692 C12.0602056,22.9949692 15.3307629,23.0062885 18.6128769,22.9949692 C20.3001609,22.9836499 22.0798987,22.5648362 23.3511401,21.4215881 C24.7841758,20.1764663 25.4082397,18.2635066 25.4891369,16.4411011 C25.5700341,14.6073764 25.2117751,12.6378201 23.9867607,11.1776319 C22.9466542,9.92119087 21.3402674,9.26467213 19.7338806,9.0948828 C18.1274938,8.94773205 17.0566897,9.01564778 14.9031635,9.01564778 L9.47149597,9.01564778 Z M15.8045892,14.9356357 L15.8045892,11.3247827 C15.8161459,11.1210355 15.8277027,10.8380532 16.0588375,10.7701375 C16.7869121,10.7022218 17.459099,10.7248604 18.2430612,10.7248604 C19.6183132,10.6456253 21.0975759,10.985204 22.0798987,11.9813014 C23.1662322,13.0905917 23.443594,14.7205692 23.4089238,16.203396 C23.3858103,17.5390721 23.0391081,18.9426639 22.0914555,19.9500806 C21.1669163,20.9122201 19.7801076,21.3197145 18.4626393,21.263118 C17.5755692,21.263118 16.8909227,21.2857566 16.1050644,21.2178409 C15.8161459,21.1952023 15.8045892,20.8556237 15.7930325,20.6292379 C15.7930325,19.2935618 15.8045892,17.9692051 15.7930325,16.633529 C16.4517666,16.6222097 17.1220575,16.6901255 17.7692349,16.5882519 C18.5666499,16.475059 18.5666499,15.0941058 17.7807917,14.9809129 C17.1220575,14.8903586 16.4633234,14.946955 15.8045892,14.9356357 Z"/>
</svg>

<svg xmlns="http://www.w3.org/2000/svg" width="32" height="32"><path fill="#FFF" d="M16 32C7.163 32 0 24.837 0 16S7.163 0 16 0s16 7.163 16 16-7.163 16-16 16zM9.471 9.016c-.508 0-1.04-.046-1.502.18-.243.374-.3.906-.011 1.28.277.249.681.249 1.04.26 1.606 0 3.212-.011 4.819 0-.046 1.392 0 2.796-.023 4.2-1.433 0-2.878-.012-4.31 0-.37 0-.81.068-.972.441-.127.34-.127.781.162 1.041.243.204.59.204.902.216 1.41 0 2.808-.012 4.218 0 0 1.528-.023 3.067.011 4.606-1.826.034-3.663-.022-5.49.034-.773-.045-1.062.997-.577 1.483.277.25.682.215 1.04.238 3.282 0 6.553.011 9.835 0 1.687-.011 3.467-.43 4.738-1.573 1.433-1.246 2.057-3.158 2.138-4.98.081-1.835-.277-3.804-1.502-5.264-1.04-1.257-2.647-1.913-4.253-2.083-1.607-.147-2.677-.08-4.83-.08H9.47zm6.334 5.92v-3.611c.011-.204.023-.487.254-.555.728-.068 1.4-.045 2.184-.045 1.375-.08 2.855.26 3.837 1.256 1.086 1.11 1.364 2.74 1.329 4.222-.023 1.336-.37 2.74-1.318 3.747-.924.962-2.31 1.37-3.628 1.313-.887 0-1.572.023-2.358-.045-.289-.023-.3-.362-.312-.589 0-1.335.012-2.66 0-3.995.659-.012 1.33.056 1.976-.046.798-.113.798-1.494.012-1.607-.659-.09-1.318-.034-1.976-.045z"/></svg>
